X: 1
T: The Maid In The Meadow
R: jig
M: 6/8
L: 1/8
K: Dmix
|:cec BdB|AGA AGE|DEG AGA|BdB AGE|
c3 BdB|ABA AGE|DEG AGA|1 AGF GAB:|2 AGF G2 D||
|:GBd gfg|ede gdB|GBd gdB|AGA AGE|
GBd gfg|ede gdB|GAB AGA|AGF G3:|


Tune 942	Setting 14133

